X:10293
T:Marcha Nupcial Asturiana
R:marcha
C:(Versin de Pedro Pangua)
Z:Mtodu de Gaita
M:6/8
L:1/8
Q:1/4=120
K:F
~A|:F2 C F2 G|A3- AcA|G2G ({A/2}G)EG|
c2 A F2 ~A|F2C F2G|A3- AcA|G2G ({A/2}G)EG|
[1 F3- F2A:|[2 F3 ({G/8C/8B,/8}C2)C||~A2 A ~AGA|cB~A GFE|
DED ~DCD|FE~D C2 F|~A2 A ~AGA|cB~A GFE|
DEF ~GEG|F3 C2({G/8C/8B,/8}C)|~A2 A AGA|cB~A GFE|
DED ~DCD|FE~D C2C|FCF AFA |
cB~A GFE|~DEF ~GEG|F3- F2 z||
